X: 12100
T: Eugene's
R: waltz
M: 3/4
K: Amajor
c de|f2- fe df|eA dA cd|BE EB Ed|cd BG Ae|
f2- fe df|eA dA ce|fa ec dc|B2- Bc de|
f2- fe df|eA dA cd|BE EB Ed|cd BG Ae|
fd dg ee|a2 ag ag|fe dc dc|B2- BA AG||
|:FD DA GE|A2 ed cA|FD DA GE|A2- AG AG|
FD DA GE|A2 ed ce|fa ec dc|1 B2 dc (3BAG:|2 B3||

